svg/SJJB-OpenStreetMapIcons/transport/marina.svg

<?xml version="1.0" encoding="UTF-8" standalone="no"?>
<!-- Created with Inkscape (http://www.inkscape.org/) -->
<svg
   xmlns:dc="http://purl.org/dc/elements/1.1/"
   xmlns:cc="http://creativecommons.org/ns#"
   xmlns:rdf="http://www.w3.org/1999/02/22-rdf-syntax-ns#"
   xmlns:svg="http://www.w3.org/2000/svg"
   xmlns="http://www.w3.org/2000/svg"
   xmlns:sodipodi="http://sodipodi.sourceforge.net/DTD/sodipodi-0.dtd"
   xmlns:inkscape="http://www.inkscape.org/namespaces/inkscape"
   version="1.0"
   width="580"
   height="580"
   id="svg2"
   sodipodi:version="0.32"
   inkscape:version="0.46"
   sodipodi:docname="marina.svg"
   sodipodi:docbase="s:\Data\FacilityIcons"
   inkscape:output_extension="org.inkscape.output.svg.inkscape">
  <metadata
     id="metadata2975">
    <rdf:RDF>
      <cc:Work
         rdf:about="">
        <dc:format>image/svg+xml</dc:format>
        <dc:type
           rdf:resource="http://purl.org/dc/dcmitype/StillImage" />
			  <cc:license
           rdf:resource="http://web.resource.org/cc/PublicDomain" />
        <dc:language>en</dc:language>
      </cc:Work>
    </rdf:RDF>
  </metadata>
  <sodipodi:namedview
     inkscape:window-height="947"
     inkscape:window-width="1048"
     inkscape:pageshadow="2"
     inkscape:pageopacity="0.0"
     guidetolerance="10.0"
     gridtolerance="10.0"
     objecttolerance="10.0"
     borderopacity="1.0"
     bordercolor="#666666"
     pagecolor="#ffffff"
     id="base"
     inkscape:zoom="0.92167712"
     inkscape:cx="301.5186"
     inkscape:cy="281.19503"
     inkscape:window-x="91"
     inkscape:window-y="25"
     inkscape:current-layer="svg2"
     showgrid="false" />
  <defs
     id="defs4">
    <inkscape:perspective
       sodipodi:type="inkscape:persp3d"
       inkscape:vp_x="0 : 290 : 1"
       inkscape:vp_y="0 : 1000 : 0"
       inkscape:vp_z="580 : 290 : 1"
       inkscape:persp3d-origin="290 : 193.33333 : 1"
       id="perspective2441" />
    <inkscape:perspective
       id="perspective3452"
       inkscape:persp3d-origin="30 : 20 : 1"
       inkscape:vp_z="60 : 30 : 1"
       inkscape:vp_y="0 : 1000 : 0"
       inkscape:vp_x="0 : 30 : 1"
       sodipodi:type="inkscape:persp3d" />
    <symbol
       viewBox="244.5 110 489 219.9"
       id="symbol-university">
      <path
         id="path4460"
         d="M79,43l57,119c0,0,21-96,104-96s124,106,124,106l43-133l82-17L0,17L79,43z" />
      <path
         id="path4462"
         d="M94,176l-21,39"
         stroke-width="20"
         stroke="#000000"
         fill="none" />
      <path
         id="path4464"
         d="M300,19c0,10.5-22.6,19-50.5,19S199,29.5,199,19s22.6-19,50.5-19S300,8.5,300,19z" />
      <path
         id="path4466"
         d="M112,216l-16-38L64,88c0,0-9-8-4-35s16-24,16-24"
         stroke-width="20"
         stroke="#000000"
         ill="none" />
    </symbol>
    <inkscape:perspective
       id="perspective4471"
       inkscape:persp3d-origin="372.04724 : 350.78739 : 1"
       inkscape:vp_z="744.09448 : 526.18109 : 1"
       inkscape:vp_y="0 : 1000 : 0"
       inkscape:vp_x="0 : 526.18109 : 1"
       sodipodi:type="inkscape:persp3d" />
    <inkscape:perspective
       id="perspective4668"
       inkscape:persp3d-origin="6 : 4 : 1"
       inkscape:vp_z="12 : 6 : 1"
       inkscape:vp_y="0 : 1000 : 0"
       inkscape:vp_x="0 : 6 : 1"
       sodipodi:type="inkscape:persp3d" />
  </defs>
  <g
     id="g1327">
    <path
       d="M 66.275,1.768 C 24.94,1.768 1.704,23.139 1.704,66.804 L 1.704,516.927 C 1.704,557.771 22.599,579.156 63.896,579.156 L 515.92,579.156 C 557.227,579.156 578.149,558.841 578.149,516.927 L 578.149,66.804 C 578.149,24.203 557.227,1.768 514.628,1.768 C 514.624,1.768 66.133,1.625 66.275,1.768 z "
       style="fill:#111;stroke:#eee;stroke-width:3.40799999"
       id="path1329" />
  </g>
  <g
     id="layer3"
     inkscape:label="Layout"
     style="display:none;stroke:#757575;stroke-opacity:1"
     transform="matrix(48.14969,0,0,48.14969,-536.27327,-33.306752)">
    <rect
       style="fill:none;stroke:#757575;stroke-width:0.10000000000000001;stroke-miterlimit:4;stroke-dasharray:none;stroke-opacity:1;display:inline"
       id="rect4134"
       width="10"
       height="10"
       x="1"
       y="1" />
    <rect
       style="fill:none;stroke:#757575;stroke-width:0.10000000000000001;stroke-miterlimit:4;stroke-dasharray:none;stroke-opacity:1;display:inline"
       id="rect4136"
       width="8"
       height="8"
       x="2"
       y="2" />
  </g>
  <path
     transform="matrix(14.685839,0,0,14.685839,565.76584,1146.0639)"
     style="font-size:40px;font-style:normal;font-variant:normal;font-weight:normal;font-stretch:normal;text-align:start;line-height:125%;writing-mode:lr-tb;text-anchor:start;fill:#ffffff;fill-opacity:1;stroke:none;stroke-width:1px;stroke-linecap:butt;stroke-linejoin:miter;stroke-opacity:1;font-family:NPSPICT3;-inkscape-font-specification:NPSPICT3"
     d="M -19.0625,-67.787842 C -19.542663,-67.78782 -19.962788,-67.967874 -20.322876,-68.328003 C -20.683002,-68.688088 -20.863055,-69.12164 -20.863037,-69.628662 C -20.863055,-70.108781 -20.683002,-70.528703 -20.322876,-70.888428 C -19.962788,-71.248103 -19.542663,-71.427953 -19.0625,-71.427979 C -18.555522,-71.427953 -18.122173,-71.248103 -17.762451,-70.888428 C -17.402772,-70.528703 -17.222922,-70.108781 -17.2229,-69.628662 C -17.222922,-69.12164 -17.402772,-68.688088 -17.762451,-68.328003 C -18.122173,-67.967874 -18.555522,-67.78782 -19.0625,-67.787842 L -19.0625,-67.787842 z M -5.3820801,-57.988037 C -5.4887217,-58.628487 -5.888705,-58.948718 -6.5820312,-58.94873 C -6.9027014,-58.948718 -7.1960768,-58.815254 -7.4621582,-58.54834 L -11.903076,-54.388184 C -12.222927,-54.122062 -12.382839,-53.802238 -12.382812,-53.428711 C -12.382839,-52.788242 -12.089464,-52.374831 -11.502686,-52.188477 L -10.38208,-51.828369 C -10.942004,-50.308183 -11.835354,-49.008135 -13.062134,-47.928223 C -14.288965,-46.848307 -15.702335,-46.148438 -17.302246,-45.828613 L -17.302246,-65.547852 C -15.515974,-66.321757 -14.622827,-67.682026 -14.622803,-69.628662 C -14.622827,-70.828182 -15.056176,-71.861302 -15.922852,-72.728027 C -16.789573,-73.594699 -17.836121,-74.028048 -19.0625,-74.028076 C -20.262877,-74.028048 -21.296201,-73.594699 -22.162476,-72.728027 C -23.028784,-71.861302 -23.46193,-70.828182 -23.461914,-69.628662 C -23.46193,-67.682026 -22.555355,-66.321757 -20.742188,-65.547852 L -20.742188,-45.78833 C -22.368995,-46.108154 -23.822444,-46.808227 -25.102539,-47.88855 C -26.382662,-48.968869 -27.302665,-50.282141 -27.862549,-51.828369 L -26.741943,-52.188477 C -26.156019,-52.374831 -25.86305,-52.788242 -25.863037,-53.428711 C -25.86305,-53.775383 -26.009535,-54.095207 -26.30249,-54.388184 L -30.782471,-58.54834 C -31.049406,-58.815254 -31.342781,-58.948718 -31.662598,-58.94873 C -32.355964,-58.948718 -32.755947,-58.628487 -32.862549,-57.988037 L -33.822021,-51.947998 C -33.848882,-51.815343 -33.86231,-51.722162 -33.862305,-51.668457 C -33.86231,-50.814774 -33.42245,-50.387935 -32.542725,-50.387939 C -32.409268,-50.387935 -32.289232,-50.401363 -32.182617,-50.428223 L -31.142578,-50.78833 C -30.288909,-48.228107 -28.762217,-46.134806 -26.5625,-44.508423 C -24.362808,-42.882043 -21.876238,-42.068852 -19.102783,-42.068848 C -16.356224,-42.068852 -13.862737,-42.895267 -11.622314,-44.548096 C -9.4625133,-46.148031 -7.9557603,-48.228107 -7.1020508,-50.78833 L -6.0620117,-50.428223 C -5.9554368,-50.401363 -5.8354011,-50.387935 -5.7019043,-50.387939 C -4.8222185,-50.387935 -4.3823589,-50.814774 -4.3823242,-51.668457 C -4.3823589,-51.722162 -4.3957866,-51.815343 -4.4226074,-51.947998 L -5.3820801,-57.988037 z"
     id="flowRoot3192" />
</svg>

<svg xmlns="http://www.w3.org/2000/svg" viewBox="0 0 580 580"><path d="m66.28 1.768c-41.34 0-64.57 21.371-64.57 65.04v450.12c0 40.844 20.895 62.23 62.19 62.23h452.02c41.31 0 62.23-20.315 62.23-62.23v-450.12c0-42.601-20.922-65.04-63.52-65.04-.004 0-448.5-.143-448.35 0z" fill="#111" stroke="#eee" stroke-width="3.408"/><path transform="matrix(14.68584 0 0 14.68584 565.77 1146.06)" d="m-19.06-67.788c-.48 0-.9-.18-1.26-.54-.36-.36-.54-.794-.54-1.301 0-.48.18-.9.54-1.26.36-.36.78-.54 1.26-.54.507 0 .94.18 1.3.54.36.36.54.78.54 1.26 0 .507-.18.941-.54 1.301-.36.36-.793.54-1.3.54m13.68 9.8c-.107-.64-.507-.961-1.2-.961-.321 0-.614.133-.88.4l-4.441 4.16c-.32.266-.48.586-.48.959 0 .64.293 1.054.88 1.24l1.121.36c-.56 1.52-1.453 2.82-2.68 3.9-1.227 1.08-2.64 1.78-4.24 2.1v-19.719c1.786-.774 2.679-2.134 2.679-4.081 0-1.2-.433-2.233-1.3-3.099-.867-.867-1.913-1.3-3.14-1.3-1.2 0-2.234.433-3.1 1.3-.866.867-1.299 1.9-1.299 3.099 0 1.947.907 3.307 2.72 4.081v19.76c-1.627-.32-3.08-1.02-4.36-2.1-1.28-1.08-2.2-2.394-2.76-3.94l1.121-.36c.586-.186.879-.6.879-1.24 0-.347-.146-.666-.439-.959l-4.48-4.16c-.267-.267-.56-.4-.88-.4-.693 0-1.093.32-1.2.961l-.959 6.04c-.027.133-.04.226-.04.28 0 .854.44 1.281 1.32 1.281.133 0 .253-.013.36-.04l1.04-.36c.854 2.56 2.38 4.654 4.58 6.28 2.2 1.626 4.686 2.44 7.46 2.44 2.747 0 5.24-.826 7.48-2.479 2.16-1.6 3.667-3.68 4.52-6.24l1.04.36c.107.027.227.04.36.04.88 0 1.32-.427 1.32-1.281 0-.054-.013-.147-.04-.28l-.959-6.04" fill="#fff"/></svg>
